X: 36430
T: Seanamhac Tube Station
R: jig
M: 6/8
K: Bminor
|:B3 BAF|Bce ~f3|fec ecA|BAF EFA|
BAF FEF|Bce f3|fec ecA|1 .B2 .d2 .c2:|2 ~B3 Bce||
f3 fec|~e3 ece|fec ecA|BAF EFA|
f3 fec|e3 ece|fec ecA|B3 Bce|
f3 fec|~e3 ece|fec ecA|BAF EFA|
BAF BAF|BAF fec|fec fec|.B2 .d2 .c2||

